X:1
T:With one consent let all the earth
T:With one consent let all the earth (John Broderip)
C:John Broderip
Z:p42, A New Set of Anthems
Z:and Psalm Tunes,
Z:London: [1745]
%%score [ 1 2 3 4 ]
L:1/8
M:4/4
K:D
V:1 treble nm="[Treble]"
V:2 treble nm="[Alto]"
V:3 treble-8 transpose=-12 nm="[Tenor]"
V:4 bass nm="[Bass]"
V:1
 d8 | A4 B4 | A4 F4 | G4 E4 | D8 | z4 F4 | d4 c4 | B4 e4 | A4 B4 | A8 | z4 c4 | d4 ^A4 | B4 d4 | %13
w: O|en- ter|then his|tem- ple|gate,|Thence|to his|courts de-|vout- ly|press,|And|still your|grate- ful|
w: With|one con-|sent let|all the|earth|To|God their|cheer- ful|voi- ces|raise;|Glad|ho- mage|pay with|
w: Con-|vinc’d that|he is|God a-|lone,|From|whom both|we and|all pro-|ceed;|We,|whom he|choo- ses|
 c4 B4 | F8 | z4 f4 | (e2 d2) c4 | B4 e4 | d4 c4 | d8 |] %20
w: hymns re-|peat,|And|still _ his|name with|prai- ses|bless.|
w: aw- ful|mirth,|And|sing _ be-|fore him|songs of|praise.|
w: for his|own,|The|flock _ that|he vouch-|safes to|feed.|
V:2
 F8 | A4 (G2 F2) | E4 D4 | E4 C4 | D8 | z4 D4 | F4 F4 | E4 E4 | E4 (E2 D2) | C8 | z4 E4 | F4 F4 | %12
w: O|en- ter _|then his|tem- ple|gate,|Thence|to his|courts de-|vout- ly _|press,|And|still your|
w: With|one con- *|sent let|all the|earth|To|God their|cheer- ful|voi- ces _|raise;|Glad|ho- mage|
w: Con-|vinc’d that _|he is|God a-|lone,|From|whom both|we and|all pro- *|ceed;|We,|whom he|
 F4 F4 | F4 (F2 E2) | F8 | z4 D4 | E4 (A2 G2) | F4 G4 | F4 E4 | D8 |] %20
w: grate- ful|hymns re- *|peat,|And|still his _|name with|prai- ses|bless.|
w: pay with|aw- ful _|mirth,|And|sing be- *|fore him|songs of|praise.|
w: choo- ses|for his _|own,|The|flock that _|he vouch-|safes to|feed.|
V:3
 A8 | d4 d4 | c4 B4 | B4 (A2 G2) | F8 | z4 B4 | B4 (c2 d2) | e4 E4 | E4 ^G4 | A8 | z4 A4 | A4 F4 | %12
w: O|en- ter|then his|tem- ple _|gate,|Thence|to his _|courts de-|vout- ly|press,|And|still your|
w: With|one con-|sent let|all the _|earth|To|God their _|cheer- ful|voi- ces|raise;|Glad|ho- mage|
w: Con-|vinc’d that|he is|God a- *|lone,|From|whom both _|we and|all pro|ceed;|We,|whom he|
 F4 B4 | c4 (d2 e2) | ^A8 | z4 A4 | B4 c4 | d4 e4 | A4 (A2 G2) | F8 |] %20
w: grate- ful|hymns re- *|peat,|And|still his|name with|prai- ses _|bless.|
w: pay with|aw- ful _|mirth,|And|sing be-|fore him|songs of _|praise.|
w: choo- ses|for his _|own,|The|flock that|he vouch-|safes to _|feed.|
V:4
 D,8 | F,4 G,4 | A,4 B,4 | G,4 A,4 | D,8 | z4 B,,4 | B,4 F,4 | ^G,4 E,4 | (C,2 D,2) E,4 | A,8 | %10
w: O|en- ter|then his|tem- ple|gate,|Thence|to his|courts de-|vout- * ly|press,|
w: With|one con-|sent let|all the|earth|To|God their|cheer- ful|voi- * ces|raise;|
w: Con-|vinc’d that|he is|God a-|lone,|From|whom both|we and|all _ pro|ceed;|
 z4 A,4 | D,4 F,4 | B,,4 B,4 | A,4 G,4 | %14
w: And|still your|grate- ful|hymns re-|
w: Glad|ho- mage|pay with|aw- ful|
w: We,|whom he|choo- ses|for his|
"^Notes:Only the first stanza of the text is given in the source: the remainder of the psalm has here been added editorially.The alto and tenor parts are printed in the alto and tenor clefs respectively in the source." F,8 | %15
w: peat,|
w: mirth,|
w: own,|
 z4 F,4 | G,4 A,4 | B,4 G,4 | A,4 A,,4 | D,8 |] %20
w: And|still his|name with|prai- ses|bless.|
w: And|sing be-|fore him|songs of|praise.|
w: The|flock that|he vouch-|safes to|feed.|

